X: 56
M: C
L: 1/8
K: G
dc |\
[B2D2].D2 [B2D2].D2 | [B2D2]D2 [B2D2]AB | [c2E2]E2 [c2E2]E2 | [c2E2]E2 [c2E2]dc | [B2D2]D2 [B2D2]D2 |
[B2D2]D2 BABc | d4 d4 | d2e2 d2c2 | [B2D2]D2 [B2D2]D2 | [B2D2]D2 [B2D2]AB |
[c2E2]E2 [c2E2]E2 | [c2E2]E2 [c2E2]d2 | g2f2 e2d2 | e2d2 c2Bc | d2c2E2F2 | G6 ||
z2 |\
E2^/FE D2B,2 | D6 B,C | D4 G2B2 | "c."d6 ^cd | e2e2 d2B2 |
P: Var:
"a."ee | "b."A2A2 | "c."d4 ^c2d2 | y8 y8 y8 y8 y8 y8


